ix/safe-home_linear.svg

<svg viewBox="0 0 24 24" fill="none" xmlns="http://www.w3.org/2000/svg" height="1em" width="1em">
  <path d="M23 15.37V17.5601C23 20.0001 21.22 22.3 18.8 22.97C18.63 23.01 18.45 23.01 18.29 22.97C17.11 22.65 16.07 21.93 15.34 21C14.55 20.02 14.09 18.8101 14.09 17.5601V15.37C14.09 14.95 14.4 14.49 14.78 14.33L17.56 13.1899C18.19 12.9399 18.89 12.9399 19.52 13.1899L20.52 13.6L22.31 14.33C22.69 14.49 23 14.95 23 15.37Z" stroke="#292D32" stroke-width="1.5" stroke-linecap="round" stroke-linejoin="round"/>
  <path d="M20.9501 11.0101L20.52 13.6L19.52 13.19C18.89 12.94 18.19 12.94 17.56 13.19L14.78 14.33C14.4 14.49 14.09 14.95 14.09 15.37V17.5601C14.09 18.8101 14.55 20.02 15.34 21H6.18003C4.81003 21 3.52005 19.9101 3.29005 18.5601L2.03004 11.0101C1.87004 10.0801 2.34002 8.83004 3.08002 8.24004L9.66004 2.98003C10.67 2.17003 12.31 2.17004 13.32 2.99004L19.9 8.24004C20.63 8.83004 21.1101 10.0801 20.9501 11.0101Z" stroke="#292D32" stroke-width="1.5" stroke-linecap="round" stroke-linejoin="round"/>
</svg>

<svg viewBox="0 0 24 24" fill="none" xmlns="http://www.w3.org/2000/svg" height="1em" width="1em">
  <path d="M23 15.37v2.19c0 2.44-1.78 4.74-4.2 5.41-.17.04-.35.04-.51 0A5.681 5.681 0 0 1 15.34 21c-.79-.98-1.25-2.19-1.25-3.44v-2.19c0-.42.31-.88.69-1.04l2.78-1.14c.63-.25 1.33-.25 1.96 0l1 .41 1.79.73c.38.16.69.62.69 1.04Z" stroke="#292D32" stroke-width="1.5" stroke-linecap="round" stroke-linejoin="round"/>
  <path d="m20.95 11.01-.43 2.59-1-.41c-.63-.25-1.33-.25-1.96 0l-2.78 1.14c-.38.16-.69.62-.69 1.04v2.19c0 1.25.46 2.46 1.25 3.44H6.18c-1.37 0-2.66-1.09-2.89-2.44l-1.26-7.55c-.16-.93.31-2.18 1.05-2.77l6.58-5.26c1.01-.81 2.65-.81 3.66.01l6.58 5.25c.73.59 1.21 1.84 1.05 2.77Z" stroke="#292D32" stroke-width="1.5" stroke-linecap="round" stroke-linejoin="round"/>
</svg>
